X: 1
T: Ice On The Water
R: waltz
M: 3/4
L: 1/8
K: Gmaj
D2|"G"B4 B2|"F"c2 d3d|"C"cB AG FG|"G"BG D2 D2|
   "G"B4 B2|"F"c2 d3d|"C"cB AG FG|"D"A4 D2|
   "G"B4 B2|"F"c2 d3d|"C"cB AG FG|"G"BG D2 DE|
   "F"=F4 EF|"G"G4 c2|"Eb"_BA GF "D"DF|"G"G4:|
|:d2|"G"g2 g2 ga|"G"gfd2 de|"F"=fe fa gf|"C"ec G4|
     "G"g2 g2 ga|"G"gfd2 de|"F"=fe dc Bc|"D"d4 d2|
     "G"g2 g2 ga|"G"gfd2 de|"F"=fe fa gf|"C"ecG2G2|
     "Eb"_B2 BA _Bd |"F" c_B A2 Ac |"Eb"_BA GF "D"DF|"G"G4:|
